X:1
T:Title
%%score ( 1 2 ) ( 3 4 )
L:1/8
Q:1/4=97
M:4/4
K:A
V:1 treble nm="Grand Piano, Soprano"
V:2 treble 
V:3 bass nm="Choir Pad, Go Forth to Meet Him"
V:4 bass 
V:1
 [CE]>[CA] [Ec]2 [Ec]2 [Ec]>[DB] | [DG]>[DE] [CF]2 [CF]2 [CE]>E | z2 e4 z2 | z2 e4 z2 | %4
w: By~Edmund~Simon~Lorenz * * * * *||||
 [CE]>[CA] [Ec]2 [Ec]2 [DB]>[DA] | [DG]>[DA] [Dd]2 [Fd]2 [^Ec]2 | %6
w: ||
 [^EG]2 [FA]>[CG] [FA]>[=EF] [^DB]2 | [^DB]2 E6 | z2 [Ec]4 [Ee]2- | %9
w: |||
 [Ee]2 [EB]>[Ec] [EB]>[Ec] [Ed]2 | E2 [Ec]4 [Ee]2- | [Ee]2 [EB]>[Ec] [EB]>[Ec] [Ed]2 | z2 e4 f2- | %13
w: ||||
 f2 c4 d2- | d2 z2 z4 | [DG]2 [CA]6- | [CA]2 z2 z4 |] %17
w: ||||
V:2
 x8 | x8 | A>c z2 G2 [Ac]>E | A>c z2 G2 [Ac]2 | x8 | x8 | x8 | x8 | x8 | x8 | x8 | x8 | %12
 E2 E2 A2 A2 | A2 A2 F2 F2 | F2 [Ec]>[DB] [DE]>[Ec] [DB]2 | x8 | x8 |] %17
V:3
 [A,,A,]>[A,,A,] [A,,A,]2 [A,,A,]2 [E,G,]>[E,G,] | [E,B,]>[E,G,] [A,,A,]2 [A,,A,]2 [A,,A,]2 | %2
 z4 [E,E]2 [A,E]2 | z4 [E,E]2 [A,E]2 | [A,,A,]>[A,,A,] [A,,A,]2 [A,,A,]2 [D,F,]>[D,F,] | %5
 [D,^E,]>[D,F,] [B,,F,]2 [B,,A,]2 [C,G,]2 | [C,C]2 [F,C]>[F,C] [F,C]>[F,A,] [B,,F,]2 | %7
 [B,,A,]2 [E,G,]2 [G,B,]>[F,A,] [E,G,]>[D,F,] | [C,E,]>[B,,G,] [A,,A,]2 [A,,A,]2 [C,A,]2 | %9
 [C,A,]2 [E,G,]>[E,A,] [E,G,]>[E,A,] [E,B,]2 | [E,G,]2 [A,,A,]2 [A,,A,]2 [C,A,]2 | %11
 [C,A,]2 [E,G,]>[E,A,] [E,G,]>[E,A,] [E,B,]2 | G,-[D,G,] [C,A,]2 [C,A,]2 [D,A,]2 | %13
 [D,A,]2 [F,A,]2 [F,A,]2 [B,,B,]2 | [B,,B,]2 [E,G,]>[E,G,] [E,G,]>[E,G,] [E,G,]2 | %15
 [E,B,]2 [A,,A,]6- | [A,,A,]2 z2 z4 |] %17
V:4
 x8 | x8 | x8 | x8 | x8 | x8 | x8 | x8 | x8 | x8 | x8 | x8 | .E,2 z2 z4 | x8 | x8 | x8 | x8 |] %17

